public/assets/images/logo.svg

<svg xmlns="http://www.w3.org/2000/svg" width="80" height="30">
  <g fill="#121212" fill-rule="evenodd">
    <path d="M43.7989447,5.79763953 C44.3711064,5.26451163 46.1121319,3.64186047 45.1113532,1.72415116 C44.7607277,1.05209302 44.1821787,0.549651163 43.5253021,0.345976744 C42.9521319,0.167930233 42.3453447,0.225593023 41.8165489,0.507837209 C39.7874255,1.59027907 38.0837149,3.7335814 36.581034,5.62465116 L36.1241787,6.19756977 C34.0140383,8.83083721 32.1553532,11.2786395 30.4422298,13.681593 C30.1874128,14.0393721 29.9325957,14.3991744 29.6767702,14.7603256 C27.8940596,17.2789419 26.050166,19.8832093 23.9023745,22.0794535 C23.3507191,22.6442791 22.8293191,22.9356279 22.6951872,22.8860581 C22.675017,22.8523372 22.6575362,22.7744419 22.6904809,22.5930233 C22.8286468,21.8332907 23.2414638,21.1005349 23.6411702,20.3917209 C23.7383234,20.2197442 23.8341319,20.0491163 23.9255702,19.8801744 C24.2597234,19.2617326 24.6153915,18.6395814 24.9592936,18.038 C25.5008638,17.0897674 26.0612596,16.1091628 26.557783,15.109 C26.826383,14.5684535 27.1091021,14.0336395 27.3921574,13.4981512 C28.4164681,11.5602093 29.4757404,9.55651163 29.8478809,7.27562791 C30.0331106,6.13855814 29.755434,5.01902326 29.1049447,4.28019767 C28.2315745,3.2877907 26.9874085,3.16369767 25.4070723,3.91061628 C24.6032894,4.29098837 23.8163149,4.80186047 23.0673277,5.42940698 C20.9662638,7.19233721 19.0732894,9.25538372 17.2428426,11.250314 C16.5903362,11.9614884 15.9159787,12.6969419 15.244983,13.4037326 C12.3761064,16.4274884 9.5499234,19.297814 6.41782553,22.4682558 C6.03929787,22.8513256 5.65505532,22.932593 5.48428085,22.814907 C5.33569362,22.7120581 5.28728511,22.3826047 5.51554468,21.8781395 C6.87031064,18.8867558 8.73874468,15.9159419 11.2274128,12.7964186 C12.0409447,11.7760233 12.888766,10.9013023 13.7856681,9.97498837 C14.0317447,9.72106977 14.2808468,9.46411628 14.531966,9.20109302 C14.6677787,9.0587907 14.8069532,8.91648837 14.9471362,8.77317442 C15.9391745,7.75986047 16.9655021,6.71181395 17.2643574,5.23112791 C17.5353106,3.88903488 16.6945489,2.45893023 15.3898723,2.04281395 C13.7150723,1.50934884 12.4298936,3.10569767 11.8819362,3.78753488 C8.61402553,7.85663953 4.48551915,13.3244884 1.54268511,19.5375698 C1.07641702,20.5225581 0.618553191,21.5908372 0.423910638,22.7265581 C0.115642553,24.521186 0.583591489,26.8610814 2.32360851,28.0426628 C2.39857447,28.0932442 2.47555745,28.1421395 2.55321277,28.1886744 C3.18420426,28.566686 3.84814043,28.7555233 4.52854894,28.7555233 C5.30342128,28.755186 6.09980851,28.5107093 6.89283404,28.0224302 C9.28972766,26.5464651 10.7228213,24.9207791 12.3821574,23.0381395 C12.8084213,22.5545814 13.2504851,22.0531512 13.7288553,21.5314884 C14.7951872,20.3698023 15.7280596,19.3079302 16.6300043,18.2814651 C18.4325489,16.2298837 20.1355872,14.2916047 22.449783,12.091314 C22.4568426,12.0845698 22.4669277,12.0751279 22.4786936,12.064 C22.4346553,12.3094884 22.2877489,12.8024884 21.8386255,13.7510581 L21.806017,13.8195116 C21.3686596,14.7701047 20.8610426,15.711593 20.370234,16.6220581 C19.0796766,19.0142209 17.745417,21.4879884 17.5285872,24.3967558 C17.4132809,25.9357791 17.9642638,27.2684302 19.0403447,28.0534535 C20.1144085,28.8367907 21.5434681,28.9514419 22.9634511,28.3687442 C26.6182936,26.8688372 29.0232553,23.604314 31.3488809,20.4473605 C31.7509404,19.9014186 32.1513191,19.3581744 32.5560681,18.8267326 C35.7338851,14.6534302 39.4858809,9.86033721 43.7989447,5.79763953" id="Fill-1"></path>
    <path d="M73.4908426,18.3212558 C72.6255404,18.1651279 71.6889702,18.561686 70.9830128,19.3817791 C69.5569787,21.0374767 66.6844043,23.8265349 63.4632213,23.9013953 C62.1686298,23.9334302 60.9661489,23.3055465 60.3983574,22.3067326 C59.978817,21.569593 59.9371319,20.5947209 60.2981787,19.935814 C60.676034,19.2448721 61.3752681,19.2300349 62.1155149,19.2145233 C62.271834,19.2114884 62.4271447,19.2081163 62.5801021,19.1983372 C67.2232851,18.9110349 71.8916809,16.6200349 75.067817,13.0698953 C76.5341915,11.438814 80.4287234,7.10601163 78.3555617,3.62095349 C77.3228468,1.88668605 75.2863277,1.19136047 72.7660596,1.71268605 C66.9002255,2.92765116 62.7619702,7.82932558 59.3431191,12.3287093 L58.9155106,12.8925233 C55.3154638,17.6421163 51.235366,23.0256628 45.1641319,23.8723953 C44.9799106,23.8980233 44.7946809,23.9189302 44.6081064,23.9334302 C43.5041234,24.0204302 42.3389574,23.6225233 41.6407319,22.9187674 C41.1196681,22.3930581 40.876617,21.722686 40.9388085,20.979814 C41.0396596,19.7658605 42.0565745,19.1477558 44.0473745,19.0907674 C45.6340979,19.044907 46.9418,18.8071744 48.2864809,18.319907 C50.3122426,17.5858023 52.315817,16.372186 54.2417362,14.7134535 C56.4123872,12.8432907 58.7413745,10.4781047 59.5572596,7.11713953 C59.9465447,5.51438372 59.6890383,4.06809302 58.8321404,3.04466279 C57.9621319,2.00572093 56.5636638,1.49484884 54.8841574,1.60410465 C54.1956809,1.64962791 53.4440043,1.80845349 52.5188638,2.10452326 C50.9250809,2.6137093 49.4590426,3.4837093 48.0945277,4.33111628 C45.1093362,6.1840814 42.4764511,8.63930233 40.4799362,11.4310581 C38.6051149,14.0525233 35.6696766,19.1366279 37.0782298,23.7297558 C37.7058596,25.7769535 39.2794723,27.4124186 41.287417,28.1047093 C42.2065064,28.421686 43.1820723,28.577814 44.1875574,28.577814 C46.4167021,28.5774767 48.7920809,27.8113372 51.0165191,26.3330116 C51.9019915,25.7445814 52.7548553,25.0735349 53.5801532,24.424407 C53.891783,24.1792558 54.2040851,23.9334302 54.5096638,23.6980581 C54.5271447,23.686593 54.543617,23.6731047 54.5829489,23.6417442 C54.6145489,23.6174651 54.6454766,23.5921744 54.672034,23.5678953 C54.7557404,23.498093 54.8374298,23.4218837 54.8902085,23.3598372 C55.2028468,23.1271628 55.5077532,22.8857209 55.7985404,22.6398953 C56.530383,25.2954186 57.863634,27.0060814 59.8685532,27.8652907 C64.2259915,29.7303953 69.2796383,27.4141047 72.5566255,24.6243721 C73.7402809,23.6157791 74.5121277,22.6817093 74.9854553,21.6845814 C75.3011191,21.0199419 75.3417957,20.3927326 75.1108468,19.7672093 C74.8197234,18.9815116 74.2290723,18.4544535 73.4908426,18.3212558 L73.4908426,18.3212558 Z M67.4596128,9.71702326 L67.4596128,9.71668605 C69.1048298,8.37054651 70.9682213,7.43984884 73.260566,6.45654651 L73.3715021,6.40630233 C73.693217,6.2569186 73.8189447,6.23297674 73.9315617,6.38101163 C73.9621532,6.43496512 73.9359319,6.67269767 73.8478553,6.84265116 C71.6577064,11.0523721 66.6225489,14.1998837 63.669966,14.1998837 C63.6518128,14.1998837 63.6329872,14.1998837 63.6144979,14.1995465 C64.5648511,12.2504767 66.0204681,10.8935465 67.4596128,9.71702326 L67.4596128,9.71702326 Z M47.806766,10.245093 C49.7141957,8.52633721 52.0606638,7.46143023 54.1311362,6.52162791 L54.2188766,6.48082558 C54.4992426,6.34796512 54.681783,6.27782558 54.8421362,6.42923256 C54.9251702,6.50746512 54.8828128,6.63088372 54.7580936,6.87266279 C52.9706766,10.3438953 48.1691574,14.2427093 44.5025489,14.2757558 C45.2774213,12.708407 46.3888,11.5227791 47.806766,10.245093 L47.806766,10.245093 Z" id="Fill-2"></path>
  </g>
</svg>

<svg xmlns="http://www.w3.org/2000/svg" width="80" height="30"><path d="M43.799 5.798c.572-.533 2.313-2.156 1.312-4.074-.35-.672-.929-1.174-1.586-1.378a2.21 2.21 0 0 0-1.708.162c-2.03 1.082-3.733 3.226-5.236 5.117l-.457.573a166.178 166.178 0 0 0-5.682 7.484c-.255.357-.51.717-.765 1.078-1.783 2.519-3.627 5.123-5.775 7.32-.551.564-1.073.856-1.207.806-.02-.034-.037-.112-.005-.293.139-.76.551-1.492.951-2.201.097-.172.193-.343.285-.512.334-.618.69-1.24 1.033-1.842.542-.948 1.102-1.929 1.599-2.929.268-.54.551-1.075.834-1.61 1.024-1.939 2.084-3.942 2.456-6.223.185-1.137-.093-2.257-.743-2.996-.873-.992-2.118-1.116-3.698-.37a11.01 11.01 0 0 0-2.34 1.52c-2.1 1.762-3.994 3.825-5.824 5.82-.653.711-1.327 1.447-1.998 2.154-2.869 3.023-5.695 5.894-8.827 9.064-.379.383-.763.465-.934.347-.148-.103-.197-.432.032-.937 1.354-2.991 3.223-5.962 5.711-9.082.814-1.02 1.662-1.895 2.559-2.821.246-.254.495-.51.746-.774.136-.142.275-.285.415-.428.992-1.013 2.019-2.061 2.317-3.542.271-1.342-.57-2.772-1.874-3.188-1.675-.534-2.96 1.063-3.508 1.745-3.268 4.069-7.396 9.536-10.34 15.75-.466.985-.923 2.053-1.118 3.189-.308 1.794.16 4.134 1.9 5.316.075.05.152.1.23.146a3.803 3.803 0 0 0 1.975.567c.774 0 1.57-.245 2.364-.734 2.397-1.476 3.83-3.101 5.49-4.984a95.15 95.15 0 0 1 1.346-1.507c1.066-1.161 2-2.223 2.901-3.25 1.803-2.051 3.506-3.99 5.82-6.19l.029-.027c-.044.245-.191.738-.64 1.687l-.033.069c-.437.95-.945 1.892-1.436 2.802-1.29 2.392-2.625 4.866-2.841 7.775-.116 1.539.435 2.871 1.511 3.656 1.074.784 2.503.898 3.923.316 3.655-1.5 6.06-4.765 8.386-7.922.402-.546.802-1.089 1.207-1.62 3.178-4.174 6.93-8.967 11.243-13.03M73.49 18.321c-.864-.156-1.801.24-2.507 1.06-1.426 1.656-4.299 4.446-7.52 4.52-1.294.032-2.497-.595-3.065-1.594-.42-.737-.46-1.712-.1-2.371.378-.691 1.077-.706 1.818-.721.156-.004.311-.007.464-.017 4.643-.287 9.312-2.578 12.488-6.128 1.466-1.631 5.36-5.964 3.288-9.449-1.033-1.734-3.07-2.43-5.59-1.908C66.9 2.928 62.762 7.829 59.343 12.329l-.427.564c-3.6 4.75-7.68 10.133-13.752 10.98a9.35 9.35 0 0 1-.556.06c-1.104.087-2.269-.31-2.967-1.014a2.394 2.394 0 0 1-.702-1.94c.1-1.213 1.118-1.831 3.108-1.888 1.587-.046 2.895-.284 4.24-.771 2.025-.734 4.029-1.948 5.955-3.607 2.17-1.87 4.5-4.235 5.315-7.596.39-1.603.132-3.049-.725-4.072-.87-1.04-2.268-1.55-3.948-1.44-.688.045-1.44.203-2.365.5-1.594.509-3.06 1.379-4.424 2.226-2.986 1.853-5.619 4.308-7.615 7.1-1.875 2.622-4.81 7.706-3.402 12.299a6.715 6.715 0 0 0 4.21 4.375 8.87 8.87 0 0 0 2.9.473c2.229 0 4.604-.767 6.829-2.245.885-.588 1.738-1.26 2.563-1.909.312-.245.624-.49.93-.726.017-.011.034-.025.073-.056.032-.025.062-.05.089-.074a1.92 1.92 0 0 0 .218-.208c.313-.233.618-.474.909-.72.731 2.655 2.065 4.366 4.07 5.225 4.357 1.865 9.41-.45 12.688-3.24 1.183-1.01 1.955-1.943 2.428-2.94.316-.665.357-1.292.126-1.918-.291-.785-.882-1.313-1.62-1.446zm-6.03-8.604c1.645-1.346 3.508-2.277 5.8-3.26l.112-.05c.321-.15.447-.174.56-.026.03.054.004.292-.084.462-2.19 4.21-7.225 7.357-10.178 7.357h-.056c.95-1.95 2.406-3.306 3.846-4.483zm-19.653.528c1.907-1.719 4.254-2.784 6.324-3.723l.088-.041c.28-.133.463-.203.623-.052.083.078.04.202-.084.444-1.787 3.47-6.589 7.37-10.255 7.403.774-1.568 1.886-2.753 3.304-4.03z" fill="#121212" fill-rule="evenodd"/></svg>
